X:1
T:Devil in a Bush, The
M:C
L:1/8
R:Reel
S:William Vickers' manuscripts (p. 21), 1770-1772
Z:AK/Fiddler's Companion
K:G
g2 dc B2 AG|FGAB cAAB|g2 dc B2 AG|FGAc BGG:|
|:E|DGBG AGBG|DGBG cAAB|cdef gdcB|cAdc BGG:||
